X: 1
T: Jackson's Jig
R: jig
M: 6/8
D: Matt Molloy recorded it as "Jackson's" on Stony Steps.
Z: Larry Sanger <larry:NUPEDIA.COM> irtrad-l 2001-01-30
K: G
c \
| BAG Bcd | edc efg | dcB gdB | BAG ABc | BAG Bcd | edc efg | dcB gdB |1 cAF G2 :|2 cAF GBd ||
| gfg bag | fed ^cde | dcB gdB | BAG ABd | gfg bag | fed ^cde | dcB gdB | cAF GBd |
| gfg bag | fed ^cde | dcB gdB | BAG ABc | BAG Bcd | edc efg | dcB gdB | cAF G2 |]
